public/avatar/hat/58.svg

<svg xmlns:xlink="http://www.w3.org/1999/xlink" height="92.9" width="100.7" xmlns="http://www.w3.org/2000/svg"><use height="21.9" transform="translate(25.9 41.95)" width="30.25" xlink:href="#a"/><defs><g id="a"><path d="M12.3 3.45q3.55 2.7 4.5 5.25l.2 1.1q0 1.75-2.65 2.8-3.5 1.3-9.2.95-5.6-.5-16.7-6.95l3-.15 3.3.1 3.6-.05 3.35.1h3.5l2.4-.35 1.75-.35 1.85-.2q.95-.15.95-.95 0-.85.15-1.3" fill="#ec0000" fill-rule="evenodd" transform="translate(12.75 7.8)"/><path d="M-11.55 6.6q11.1 6.45 16.7 6.95 5.7.35 9.2-.95Q17 11.55 17 9.8l-.2-1.1q-.95-2.55-4.5-5.25" fill="none" stroke="#820202" stroke-linecap="round" stroke-linejoin="round" transform="translate(12.75 7.8)"/><path d="m6.9 8.35-.5.05-2.5.4-6.5.25-4.25-.6q-1-3.05.05-6.15l.2-.7q1.35-3.9 5.35-7.85l-.05-.05h.05l.85-.1Q3.55-3.95 5.85-.35L6.7 1.5l.05.1.2.7q.75 2.6-.05 6.05" fill="#ec0000" fill-rule="evenodd" transform="translate(12.75 7.8)"/><path d="M.05-6.4h.1l1.55.1q5.3.45 8.65 4.65Q11.6-.05 12.1 1.5l.2.8.1.4q.25 1-.05 2.45l-.6 1.75L6.9 8.35q.8-3.45.05-6.05l-.2-.7-.05-.1-.85-1.85Q3.55-3.95-.4-6.4h.45m-6.9 14.85L-9.1 7.8l-2.75-.9q-.75-2.05-.1-4.6l.25-.7q.45-1.4 1.5-2.85Q-7.5-5.2-2.7-6.1l1.4-.2.05.05q-4 3.95-5.35 7.85l-.2.7q-1.05 3.1-.05 6.15" fill-rule="evenodd" transform="translate(12.75 7.8)"/><path d="m.15-6.4 1.55.1q5.3.45 8.65 4.65Q11.6-.05 12.1 1.5l.2.8.1.4q.25 1-.05 2.45l-.6 1.75L6.9 8.35l-.5.05-2.5.4-6.5.25-4.25-.6-2.25-.65-2.75-.9q-.75-2.05-.1-4.6l.25-.7q.45-1.4 1.5-2.85Q-7.5-5.2-2.7-6.1l1.4-.2h.05l.85-.1h.45" fill="none" stroke="#820202" stroke-linecap="round" stroke-linejoin="round" transform="translate(12.75 7.8)"/><path d="M1.15-6q-.65.3-1.55.3-.95 0-1.6-.3-.65-.3-.65-.75T-2-7.5l1.6-.3 1.55.3.65.75q0 .45-.65.75" fill-rule="evenodd" transform="translate(12.75 7.8)"/><path d="M13.9 1.8q-.65.3-1.55.3-.95 0-1.6-.3-.65-.3-.65-.75t.65-.75l1.6-.3 1.55.3.65.75q0 .45-.65.75Z" fill="none" stroke="#000" stroke-linecap="round" stroke-linejoin="round" stroke-width=".05"/></g></defs></svg>

<?xml version="1.0" encoding="UTF-8" standalone="no"?>
<svg xmlns:xlink="http://www.w3.org/1999/xlink" height="92.9px" width="100.7px" xmlns="http://www.w3.org/2000/svg">
  <g transform="matrix(1.0, 0.0, 0.0, 1.0, 38.65, 49.75)">
    <use height="21.9" transform="matrix(1.0, 0.0, 0.0, 1.0, -12.75, -7.8)" width="30.25" xlink:href="#shape0"/>
  </g>
  <defs>
    <g id="shape0" transform="matrix(1.0, 0.0, 0.0, 1.0, 12.75, 7.8)">
      <path d="M12.3 3.45 Q15.85 6.15 16.8 8.7 L17.0 9.8 Q17.0 11.55 14.35 12.6 10.85 13.9 5.15 13.55 -0.45 13.05 -11.55 6.6 L-8.55 6.45 -5.25 6.55 -1.65 6.5 1.7 6.6 5.2 6.6 7.6 6.25 9.35 5.9 11.2 5.7 Q12.15 5.55 12.15 4.75 12.15 3.9 12.3 3.45" fill="#ec0000" fill-rule="evenodd" stroke="none"/>
      <path d="M-11.55 6.6 Q-0.45 13.05 5.15 13.55 10.85 13.9 14.35 12.6 17.0 11.55 17.0 9.8 L16.8 8.7 Q15.85 6.15 12.3 3.45" fill="none" stroke="#820202" stroke-linecap="round" stroke-linejoin="round" stroke-width="1.0"/>
      <path d="M6.9 8.35 L6.4 8.4 3.9 8.8 -2.6 9.05 -6.85 8.45 Q-7.85 5.4 -6.8 2.3 L-6.6 1.6 Q-5.25 -2.3 -1.25 -6.25 L-1.3 -6.3 -1.25 -6.3 -0.4 -6.4 Q3.55 -3.95 5.85 -0.35 L6.7 1.5 6.75 1.6 6.95 2.3 Q7.7 4.9 6.9 8.35" fill="#ec0000" fill-rule="evenodd" stroke="none"/>
      <path d="M0.05 -6.4 L0.15 -6.4 1.7 -6.3 Q7.0 -5.85 10.35 -1.65 11.6 -0.05 12.1 1.5 L12.3 2.3 12.4 2.7 Q12.65 3.7 12.35 5.15 L11.75 6.9 6.9 8.35 Q7.7 4.9 6.95 2.3 L6.75 1.6 6.7 1.5 5.85 -0.35 Q3.55 -3.95 -0.4 -6.4 L-0.25 -6.4 0.05 -6.4 M-6.85 8.45 L-9.1 7.8 -11.85 6.9 Q-12.6 4.85 -11.95 2.3 L-11.7 1.6 Q-11.25 0.2 -10.2 -1.25 -7.5 -5.2 -2.7 -6.1 L-1.3 -6.3 -1.25 -6.25 Q-5.25 -2.3 -6.6 1.6 L-6.8 2.3 Q-7.85 5.4 -6.85 8.45" fill="#000000" fill-rule="evenodd" stroke="none"/>
      <path d="M0.15 -6.4 L1.7 -6.3 Q7.0 -5.85 10.35 -1.65 11.6 -0.05 12.1 1.5 L12.3 2.3 12.4 2.7 Q12.65 3.7 12.35 5.15 L11.75 6.9 6.9 8.35 6.4 8.4 3.9 8.8 -2.6 9.05 -6.85 8.45 -9.1 7.8 -11.85 6.9 Q-12.6 4.85 -11.95 2.3 L-11.7 1.6 Q-11.25 0.2 -10.2 -1.25 -7.5 -5.2 -2.7 -6.1 L-1.3 -6.3 -1.25 -6.3 -0.4 -6.4 -0.25 -6.4 0.05 -6.4" fill="none" stroke="#820202" stroke-linecap="round" stroke-linejoin="round" stroke-width="1.0"/>
      <path d="M1.15 -6.0 Q0.5 -5.7 -0.4 -5.7 -1.35 -5.7 -2.0 -6.0 -2.65 -6.3 -2.65 -6.75 -2.65 -7.2 -2.0 -7.5 L-0.4 -7.8 1.15 -7.5 1.8 -6.75 Q1.8 -6.3 1.15 -6.0" fill="#000000" fill-rule="evenodd" stroke="none"/>
      <path d="M1.15 -6.0 Q0.5 -5.7 -0.4 -5.7 -1.35 -5.7 -2.0 -6.0 -2.65 -6.3 -2.65 -6.75 -2.65 -7.2 -2.0 -7.5 L-0.4 -7.8 1.15 -7.5 1.8 -6.75 Q1.8 -6.3 1.15 -6.0 Z" fill="none" stroke="#000000" stroke-linecap="round" stroke-linejoin="round" stroke-width="0.05"/>
    </g>
  </defs>
</svg>
